X:1
T:Porto Celato
T:Sigismondo d'India
T:Source : Le Musische a 2 voci di S.d'India---Libro II---Venetia---R.Amadino---1615. Editor : André Vierendeels (26/07/15).
T:Notes : Original clefs : C1, C1, F4 Editorial accidentals above the staff Figures in BC are notated in original print See also "Nudrisco" (part 2), "Gia mai" (part 3) and "Cosi per" (part 4).
T:Porto celato
T:Aria sopra Zefira (part 1)
C:Sigismondo d'India
%%score [ 1 2 ] { 3 | 4 }
L:1/8
Q:1/4=120
M:4/4
K:F
V:1 treble nm="Soprano 1" snm="S 1"
V:2 treble nm="Soprano 2" snm="S 2"
V:3 treble nm="BC" snm="BC"
V:4 bass 
V:1
 z4 G4 | G2 G2 G2 G2 | G8 | A8- | A2 G^F G4- | G4 ^F4 | z8 |"^-natural" z2 F4 GA | B2 A2 G2 F2 | %9
w: Por-|to ce- la- to'il|mio|no-|* bil pen- sie-|* ro,||den- tro'al mio|pet- to ne sco-|
 GF GA Bc Bc | d3 c c4 | B4 f4 | e2 d2 c2 d2- | d2 c4 G2 | GA GA/B/ cA B/A/B/c/ | de de/f/ g4- | %16
w: prir _ _ _ _ _ _ _|pos- s'i- *|o l'al-|ta cag- gion ohi-|* me del|ar- * * * * * * * * * *||
 g2 B2 A4 | G8 | z4 z2 F2 | A2 B2 c4- | c2 c/B/A/G/ G2 G2 | EF G/A/B/c/ d4- | d2 e2 A4 | G8 |] %24
w: * der mi-|o,|l'al-|ta cag- gion|_ ohi- * * * me del|ar- * * * * * *|* der mi-|o.|
V:2
 z8 | z8 | c4 c2 c2 | c2 c2 c4 | d6 cB | B4 A4 | z4 z2 B2- | B2 cd _e2 d2 | d2 c2 BG AB | %9
w: ||Por- to ce-|la- to'il mio|no- bil pen-|sie- ro,|den-|* tro'al mio pet- to|ne sco- prir _ _ _|
 c4 z FGA | B2 B4 A2 | B8 | z2 B2 A2 G2 | A6 G2 | E6 A2 | FG FG/A/ Bc Bc | d2 G2 G3 ^F | G8 | z8 | %19
w: _ pos- * *|* s'i- *|o|l'al- ta cag-|gion ohi-|me del|ar- * * * * * * * *|* der mi- *|o.,||
 z4 z2 c2 | e2 f2 g4- | g2 d2 B2 c2 | d2 G2 G3 ^F | G8 |] %24
w: l'al-|ta cag- gion|_ ohi- me del|ar- der mi- *|o.|
V:3
 z8 | z8 | z8 | z8 | z8 | z8 | z8 | z8 | z8 | z8 | z8 | z8 | z8 | z8 | z8 | z8 | a2 x6 | z8 | z8 | %19
 z8 | z8 | z8 | z8 | z8 |] %24
V:4
 z4 G,4- | G,2 F,2 E,2 D,2 | C,6 B,,2 | A,,2 G,,2 F,,2 F,2- |"^7    6" F,2 D,2 _E,4 | %5
"^4       3" D,8 | D,4 B,4 |"^6""^6" B,2 A,2 G,2 F,2 |"^7 6" _E,4- E,2 D,2 |"^6" C,4 D,4 | %10
"^6   3" B,,4 F,4 | B,,6 C,2 | D,2 E,2 F,4- |"^6" F,2 F,2 F,2 E,D, | C,8- | C,2 B,,A,, G,,2 A,,2 | %16
 B,,2 C,2 D,4 | G,,6 B,,2 | B,,2 G,,2 F,,2 F,2- | F,2 F,2 F,2 E,D, | C,6 C,2 | %21
 C,2 B,,A,, G,,2 A,,2 | B,,2 C,2 D,4 | G,,8 |] %24

